X: 17796
T: Hoodwinked
R: jig
M: 6/8
K: Emajor
|:FDB, F2F|GBA GEB,|DBA G2E|GBA GFE|
FDE F2F|GBA GFF|GBA GFE|1 FDE F2F:|2 FDE F2A||
|:GEC BGE|FGA FDB,|GEC BGE|FDB, EEF|
GEC BGE|FGA FDB,|BED AFG|1 AFD E2F:|2 AFD E3||

